svg/u1f486_1f3fe_200d_2640.svg

<svg viewBox="0 0 128 128" xmlns="http://www.w3.org/2000/svg">
  <g id="hairGroup_1_">
    <path id="hair_10_" d="M64.57,4.12c-41.01,0-40.68,37.92-40.68,38.52c0,24.56,1.88,59.25,11.71,72.9 c3.9,5.41,11.43,5.71,11.43,5.71L64,121.23l16.97,0.03c0,0,7.54-0.3,11.43-5.71c9.83-13.65,11.71-48.34,11.71-72.9 C104.1,42.04,105.58,4.12,64.57,4.12z" fill="#3C2C23"/>
    <radialGradient id="hairHighlights_2_" cx="64.0002" cy="68.3091" gradientTransform="matrix(1 0 0 -1.1901 0 140.9834)" gradientUnits="userSpaceOnUse" r="47.5315">
      <stop offset="0.7936" stop-color="#554138" stop-opacity="0"/>
      <stop offset="1" stop-color="#554138"/>
    </radialGradient>
    <path id="hairHighlights_1_" d="M64.57,4.12c-41.01,0-40.68,37.92-40.68,38.52 c0,24.56,1.88,59.25,11.71,72.9c3.9,5.41,11.43,5.71,11.43,5.71L64,121.23l16.97,0.03c0,0,7.54-0.3,11.43-5.71 c9.83-13.65,11.71-48.34,11.71-72.9C104.1,42.04,105.58,4.12,64.57,4.12z" fill="url(#hairHighlights_2_)"/>
  </g>
  <g id="shirt">
    <linearGradient id="SVGID_1_" gradientTransform="matrix(1 0 0 -1 0 128)" gradientUnits="userSpaceOnUse" x1="64" x2="64" y1="32.691" y2="1.6163">
      <stop offset="0" stop-color="#651FFF"/>
      <stop offset="0.7047" stop-color="#5914F2"/>
      <stop offset="1" stop-color="#530EEB"/>
    </linearGradient>
    <path d="M64.13,96c-0.04,0-0.09,0-0.13,0c-25.49,0.03-52,7.28-52,25.06V124h1.5H15h98h1.5h1.5v-2.94 C116,104.3,89.74,96,64.13,96z" fill="url(#SVGID_1_)"/>
  </g>
  <g id="neck">
    <path d="M54.92,90.08v9.98c0,4.51,3.46,8.17,9.08,8.17s9.08-3.66,9.08-8.17v-9.98L54.92,90.08z" fill="#7A4C32"/>
  </g>
  <g id="head">
    <path d="M64,16.04L64,16.04L64,16.04c-17.2,0-33.13,12.79-33.13,39.91c0,21.78,13.49,34.67,25.23,38.83 c2.8,0.99,5.5,1.49,7.9,1.49c2.38,0,5.07-0.49,7.85-1.47c11.76-4.14,25.28-17.03,25.28-38.84C97.13,28.83,81.2,16.04,64,16.04z" fill="#A56C43"/>
  </g>
  <path id="mouth" d="M72.32,76.14c-3.15,1.87-13.47,1.87-16.61,0c-1.81-1.07-3.65,0.57-2.9,2.21 c0.74,1.61,6.37,5.36,11.23,5.36s10.42-3.75,11.16-5.36C75.95,76.71,74.12,75.06,72.32,76.14z" fill="#473530"/>
  <path id="nose" d="M67.86,68.06c-0.11-0.04-0.21-0.07-0.32-0.08h-7.08c-0.11,0.01-0.22,0.04-0.32,0.08 c-0.64,0.26-0.99,0.92-0.69,1.63c0.3,0.71,1.71,2.69,4.55,2.69s4.25-1.99,4.55-2.69C68.85,68.98,68.5,68.32,67.86,68.06z" fill="#875334"/>
  <g id="eyes">
    <path d="M47.63,60.3c-2.06,0-3.9-0.5-5.18-1.29c-0.55-0.34-0.87-0.14-0.77,0.5c0.37,2.48,2.9,4.4,5.95,4.4 c3.06,0,5.58-1.92,5.95-4.4c0.1-0.64-0.22-0.84-0.77-0.5C51.53,59.8,49.69,60.3,47.63,60.3z" fill="#42312C"/>
    <path d="M80.25,60.3c-2.06,0-3.9-0.5-5.18-1.29c-0.55-0.34-0.87-0.14-0.77,0.5c0.38,2.48,2.9,4.4,5.95,4.4 s5.58-1.92,5.95-4.4c0.1-0.64-0.22-0.84-0.77-0.5C84.15,59.8,82.3,60.3,80.25,60.3z" fill="#42312C"/>
  </g>
  <g id="eyebrows">
    <path d="M54.99,49.82c-0.93-1.23-3.07-3.01-7.23-3.01s-6.31,1.79-7.23,3.01c-0.41,0.54-0.31,1.17-0.02,1.55 c0.26,0.35,1.04,0.68,1.9,0.39s2.54-1.16,5.35-1.18c2.81,0.02,4.49,0.89,5.35,1.18c0.86,0.29,1.64-0.03,1.9-0.39 C55.29,50.99,55.39,50.36,54.99,49.82z" fill="#42312C"/>
    <path d="M87.48,49.82c-0.93-1.23-3.07-3.01-7.23-3.01s-6.31,1.79-7.23,3.01c-0.41,0.54-0.31,1.17-0.02,1.55 c0.26,0.35,1.04,0.68,1.9,0.39s2.54-1.16,5.35-1.18c2.81,0.02,4.49,0.89,5.35,1.18c0.86,0.29,1.64-0.03,1.9-0.39 C87.79,50.99,87.89,50.36,87.48,49.82z" fill="#42312C"/>
  </g>
  <g id="hairGroup">
    <path id="hair_5_" d="M64.57,4.12c-41.01,0-40.68,37.92-40.68,38.52c0,7.76,0.19,16.53,0.75,25.32l6.72-0.02 c-0.06-2.92,1.99-20.97,8.08-22.34c22.36-5.03,35.01-16.89,35.01-16.89c3.29,7.18,13.58,14.19,17.27,16.86 c3.03,2.19,3.96,18.55,3.9,22.38h7.71c0-0.05,0.02-0.1,0.02-0.16c0.56-8.75,0.74-17.46,0.74-25.17 C104.1,42.04,105.58,4.12,64.57,4.12z" fill="#3C2C23"/>
    <radialGradient id="hairHighlights_3_" cx="64.3333" cy="64.2846" gradientTransform="matrix(1 0 0 -1.2135 0 141.7279)" gradientUnits="userSpaceOnUse" r="49.788">
      <stop offset="0.7945" stop-color="#554138" stop-opacity="0"/>
      <stop offset="1" stop-color="#554138"/>
    </radialGradient>
    <path id="hairHighlights" d="M64.57,4.12c-41.01,0-40.68,37.92-40.68,38.52 c0,7.76,0.19,16.53,0.75,25.32l6.72-0.02c-0.06-2.92,1.99-20.97,8.08-22.34c22.36-5.03,35.01-16.89,35.01-16.89 c3.29,7.18,13.58,14.19,17.27,16.86c3.03,2.19,3.96,18.55,3.9,22.38h7.71c0-0.05,0.02-0.1,0.02-0.16 c0.56-8.75,0.74-17.46,0.74-25.17C104.1,42.04,105.58,4.12,64.57,4.12z" fill="url(#hairHighlights_3_)"/>
  </g>
  <g id="hand_1_">
    <linearGradient id="SVGID_2_" gradientTransform="matrix(1 0 0 -1 0 128)" gradientUnits="userSpaceOnUse" x1="30.9218" x2="30.9218" y1="124.375" y2="64.2479">
      <stop offset="0.5988" stop-color="#A56C43"/>
      <stop offset="1" stop-color="#8D5738"/>
    </linearGradient>
    <path d="M43.4,32.93c-0.42-0.81-1.06-1.44-2.93-1.7c-0.68-0.18-3.64-0.58-5.93-3.68 c-1.41-1.91-2.81-5.35-2.39-8.33l2.62-15.5H33.9h-1.16H22.7h-0.85H20.7l-0.56,12.44c0,0-2.01,11.78-2.01,11.85l0.52,15.55 l2.14,18.6c0.11,1.35,0.87,2.67,3,2.67c2.73,0,3.54-2.36,3.79-5.67l0.26-15.99c0-2.09,1.24-4,3.15-4.85 c0.6-0.27,1.27-0.37,1.96-0.37c1.5,0,3.11,0.48,4.38,0.77c0.29,0.06,0.6,0.1,0.93,0.1c1.76,0,3.9-0.92,4.78-2.36 C43.9,35.02,43.83,33.78,43.4,32.93z" fill="url(#SVGID_2_)"/>
  </g>
  <g id="hand">
    <linearGradient id="SVGID_3_" gradientTransform="matrix(1 0 0 -1 0 128)" gradientUnits="userSpaceOnUse" x1="97.0792" x2="97.0792" y1="124.375" y2="64.3749">
      <stop offset="0.5988" stop-color="#A56C43"/>
      <stop offset="1" stop-color="#8D5738"/>
    </linearGradient>
    <path d="M107.86,16.15L107.3,3.71h-1.15h-0.86H95.26H94.1h-0.87l2.62,15.5 c0.42,2.99-0.98,6.43-2.39,8.33c-2.29,3.1-5.25,3.51-5.93,3.68c-1.86,0.26-2.51,0.89-2.93,1.7c-0.44,0.85-0.5,2.09,0.36,3.51 c0.88,1.45,3.02,2.36,4.78,2.36c0.33,0,0.64-0.03,0.93-0.1c1.27-0.29,2.88-0.77,4.38-0.77c0.69,0,1.36,0.1,1.96,0.37 c1.91,0.85,3.15,2.76,3.15,4.85l0.26,15.99c0.25,3.31,1.06,5.67,3.79,5.67c2.13,0,2.89-1.31,3-2.67l2.14-18.6l0.52-15.55 C109.87,27.93,107.86,16.15,107.86,16.15z" fill="url(#SVGID_3_)"/>
  </g>
</svg>

<svg viewBox="0 0 128 128" xmlns="http://www.w3.org/2000/svg">
  <defs>
    <linearGradient id="SVGID_1_" gradientTransform="matrix(1 0 0 -1 0 0)" gradientUnits="userSpaceOnUse" x1="64" x2="64" y1="-95.309" y2="-126.3837">
      <stop offset="0" stop-color="#651FFF"/>
      <stop offset="0.7047" stop-color="#5914F2"/>
      <stop offset="1" stop-color="#530EEB"/>
    </linearGradient>
    <radialGradient id="hairHighlights_2_" cx="64.0002" cy="-50.15439" gradientTransform="matrix(1 0 0 -1.1901 0 0)" gradientUnits="userSpaceOnUse" r="47.5315">
      <stop offset="0.7936" stop-color="#554138" stop-opacity="0"/>
      <stop offset="1" stop-color="#554138"/>
    </radialGradient>
    <radialGradient id="hairHighlights_3_" cx="64.3333" cy="-52.508066" gradientTransform="matrix(1 0 0 -1.2135 0 0)" gradientUnits="userSpaceOnUse" r="49.788">
      <stop offset="0.7945" stop-color="#554138" stop-opacity="0"/>
      <stop offset="1" stop-color="#554138"/>
    </radialGradient>
    <linearGradient id="SVGID_2_" gradientTransform="matrix(1 0 0 -1 0 0)" gradientUnits="userSpaceOnUse" x1="30.9218" x2="30.9218" y1="-3.625" y2="-63.7521">
      <stop offset="0.5988" stop-color="#A56C43"/>
      <stop offset="1" stop-color="#8D5738"/>
    </linearGradient>
    <linearGradient id="SVGID_3_" gradientTransform="matrix(1 0 0 -1 0 0)" gradientUnits="userSpaceOnUse" x1="97.0792" x2="97.0792" y1="-3.625" y2="-63.6251">
      <stop offset="0.5988" stop-color="#A56C43"/>
      <stop offset="1" stop-color="#8D5738"/>
    </linearGradient>
  </defs>
  <path id="hair_10_" d="M64.57,4.12 C23.56,4.12 23.89,42.04 23.89,42.64 C23.89,67.2 25.77,101.89 35.6,115.54 C39.5,120.95 47.03,121.25 47.03,121.25 L64,121.23 L80.97,121.26 C80.97,121.26 88.51,120.96 92.4,115.55 C102.23,101.9 104.11,67.21 104.11,42.65 C104.1,42.04 105.58,4.12 64.57,4.12 Z" fill="#3C2C23"/>
  <path id="hairHighlights_1_" d="M64.57,4.12 C23.56,4.12 23.89,42.04 23.89,42.64 C23.89,67.2 25.77,101.89 35.6,115.54 C39.5,120.95 47.03,121.25 47.03,121.25 L64,121.23 L80.97,121.26 C80.97,121.26 88.51,120.96 92.4,115.55 C102.23,101.9 104.11,67.21 104.11,42.65 C104.1,42.04 105.58,4.12 64.57,4.12 Z" fill="url(#hairHighlights_2_)"/>
  <path d="M64.13,96 C64.09,96 64.04,96 64,96 C38.51,96.03 12,103.28 12,121.06 L12,124 L13.5,124 L15,124 L113,124 L114.5,124 L116,124 L116,121.06 C116,104.3 89.74,96 64.13,96 Z" fill="url(#SVGID_1_)"/>
  <path d="M54.92,90.08 L54.92,100.06 C54.92,104.57 58.38,108.23 64,108.23 C69.62,108.23 73.08,104.57 73.08,100.06 L73.08,90.08 L54.92,90.08 Z" fill="#7A4C32"/>
  <path d="M64,16.04 L64,16.04 L64,16.04 C46.8,16.04 30.87,28.83 30.87,55.95 C30.87,77.73 44.36,90.62 56.1,94.78 C58.9,95.77 61.6,96.27 64,96.27 C66.38,96.27 69.07,95.78 71.85,94.8 C83.61,90.66 97.13,77.77 97.13,55.96 C97.13,28.83 81.2,16.04 64,16.04 Z" fill="#A56C43"/>
  <path id="mouth" d="M72.32,76.14 C69.17,78.01 58.85,78.01 55.71,76.14 C53.9,75.07 52.06,76.71 52.81,78.35 C53.55,79.96 59.18,83.71 64.04,83.71 C68.9,83.71 74.46,79.96 75.2,78.35 C75.95,76.71 74.12,75.06 72.32,76.14 Z" fill="#473530"/>
  <path id="nose" d="M67.86,68.06 C67.75,68.02 67.65,67.99 67.54,67.98 L60.46,67.98 C60.35,67.99 60.24,68.02 60.14,68.06 C59.5,68.32 59.15,68.98 59.45,69.69 C59.75,70.4 61.16,72.38 64,72.38 C66.84,72.38 68.25,70.39 68.55,69.69 C68.85,68.98 68.5,68.32 67.86,68.06 Z" fill="#875334"/>
  <path d="M47.63,60.3 C45.57,60.3 43.73,59.8 42.45,59.01 C41.9,58.67 41.58,58.87 41.68,59.51 C42.05,61.99 44.58,63.91 47.63,63.91 C50.69,63.91 53.21,61.99 53.58,59.51 C53.68,58.87 53.36,58.67 52.81,59.01 C51.53,59.8 49.69,60.3 47.63,60.3 Z" fill="#42312C"/>
  <path d="M80.25,60.3 C78.19,60.3 76.35,59.8 75.07,59.01 C74.52,58.67 74.2,58.87 74.3,59.51 C74.68,61.99 77.2,63.91 80.25,63.91 C83.3,63.91 85.83,61.99 86.2,59.51 C86.3,58.87 85.98,58.67 85.43,59.01 C84.15,59.8 82.3,60.3 80.25,60.3 Z" fill="#42312C"/>
  <path d="M54.99,49.82 C54.06,48.59 51.92,46.81 47.76,46.81 C43.6,46.81 41.45,48.6 40.53,49.82 C40.12,50.36 40.22,50.99 40.51,51.37 C40.77,51.72 41.55,52.05 42.41,51.76 C43.27,51.47 44.95,50.6 47.76,50.58 C50.57,50.6 52.25,51.47 53.11,51.76 C53.97,52.05 54.75,51.73 55.01,51.37 C55.29,50.99 55.39,50.36 54.99,49.82 Z" fill="#42312C"/>
  <path d="M87.48,49.82 C86.55,48.59 84.41,46.81 80.25,46.81 C76.09,46.81 73.94,48.6 73.02,49.82 C72.61,50.36 72.71,50.99 73,51.37 C73.26,51.72 74.04,52.05 74.9,51.76 C75.76,51.47 77.44,50.6 80.25,50.58 C83.06,50.6 84.74,51.47 85.6,51.76 C86.46,52.05 87.24,51.73 87.5,51.37 C87.79,50.99 87.89,50.36 87.48,49.82 Z" fill="#42312C"/>
  <path id="hair_5_" d="M64.57,4.12 C23.56,4.12 23.89,42.04 23.89,42.64 C23.89,50.4 24.08,59.17 24.64,67.96 L31.36,67.94 C31.3,65.02 33.35,46.97 39.44,45.6 C61.8,40.57 74.45,28.71 74.45,28.71 C77.74,35.89 88.03,42.9 91.72,45.57 C94.75,47.76 95.68,64.12 95.62,67.95 L103.33,67.95 C103.33,67.9 103.35,67.85 103.35,67.79 C103.91,59.04 104.09,50.33 104.09,42.62 C104.1,42.04 105.58,4.12 64.57,4.12 Z" fill="#3C2C23"/>
  <path id="hairHighlights" d="M64.57,4.12 C23.56,4.12 23.89,42.04 23.89,42.64 C23.89,50.4 24.08,59.17 24.64,67.96 L31.36,67.94 C31.3,65.02 33.35,46.97 39.44,45.6 C61.8,40.57 74.45,28.71 74.45,28.71 C77.74,35.89 88.03,42.9 91.72,45.57 C94.75,47.76 95.68,64.12 95.62,67.95 L103.33,67.95 C103.33,67.9 103.35,67.85 103.35,67.79 C103.91,59.04 104.09,50.33 104.09,42.62 C104.1,42.04 105.58,4.12 64.57,4.12 Z" fill="url(#hairHighlights_3_)"/>
  <path d="M43.4,32.93 C42.98,32.12 42.34,31.49 40.47,31.23 C39.79,31.05 36.83,30.65 34.54,27.55 C33.13,25.64 31.73,22.2 32.15,19.22 L34.77,3.72 L33.9,3.72 L32.74,3.72 L22.7,3.72 L21.85,3.72 L20.7,3.72 L20.14,16.16 C20.14,16.16 18.13,27.94 18.13,28.01 L18.65,43.56 L20.79,62.16 C20.9,63.51 21.66,64.83 23.79,64.83 C26.52,64.83 27.33,62.47 27.58,59.16 L27.84,43.17 C27.84,41.08 29.08,39.17 30.99,38.32 C31.59,38.05 32.26,37.95 32.95,37.95 C34.45,37.95 36.06,38.43 37.33,38.72 C37.62,38.78 37.93,38.82 38.26,38.82 C40.02,38.82 42.16,37.9 43.04,36.46 C43.9,35.02 43.83,33.78 43.4,32.93 Z" fill="url(#SVGID_2_)"/>
  <path d="M107.86,16.15 L107.3,3.71 L106.15,3.71 L105.29,3.71 L95.26,3.71 L94.1,3.71 L93.23,3.71 L95.85,19.21 C96.27,22.2 94.87,25.64 93.46,27.54 C91.17,30.64 88.21,31.05 87.53,31.22 C85.67,31.48 85.02,32.11 84.6,32.92 C84.16,33.77 84.1,35.01 84.96,36.43 C85.84,37.88 87.98,38.79 89.74,38.79 C90.07,38.79 90.38,38.76 90.67,38.69 C91.94,38.4 93.55,37.92 95.05,37.92 C95.74,37.92 96.41,38.02 97.01,38.29 C98.92,39.14 100.16,41.05 100.16,43.14 L100.42,59.13 C100.67,62.44 101.48,64.8 104.21,64.8 C106.34,64.8 107.1,63.49 107.21,62.13 L109.35,43.53 L109.87,27.98 C109.87,27.93 107.86,16.15 107.86,16.15 Z" fill="url(#SVGID_3_)"/>
</svg>
